!!!!SEGMENT: 069-1-MEIf-002.krn
!!!COM: Chopin, Fryderyk
!!!OTL: Valse No. 2
!!!OPS: Op. 69
!!!PTL: ŒUVRES POSTHUMES POUR PIANO
!!!PPR: Meissonnier fils
!!!PPP: Paris
!!!AGN: Waltz
!!!NIFC-rismID: 1001030112
!!!NIFC-shelfmark: PL-Wbfc 4765/n
!!!OMD: MODERATO.
!!!OMD: [quarter] = 152
**kern	**kern	**fing	**dynam
*part1	*part1	*	*part1
*staff2	*staff1	*	*
*clefF4	*clefG2	*	*
*k[f#c#]	*k[f#c#]	*	*
*M3/4	*M3/4	*	*
*kcancel	*kcancel	*	*
*I"2|e | VALSE	*I"(1829)	*	*
4r	[>4ff#^<	.	.
=2	=2	=2	=2
*ped	*	*	*
4BB	(>8ff#L]	.	p
.	8gg	.	.
4d 4B 4F#	8ff#	.	.
.	8cc#	.	.
4d 4B 4F#	8dd	.	.
*Xped	*	*	*
.	8bJ)	.	.
=3	=3	=3	=3
*ped	*	*	*
4C#	2a#X\	.	.
4e 4c# 4F#	.	.	.
4e 4c# 4F#	[>4ff#^<	.	.
*Xped	*	*	*
.	.	.	.
=4	=4	=4	=4
*ped	*	*	*
4AA#X	(>8ff#L]	.	.
.	8gg	.	.
4e 4A#X 4F#	8ff#	.	.
.	8cc#	.	.
4e 4A# 4F#	8ee	.	.
*Xped	*	*	*
.	8ddJ)	.	.
=5	=5	=5	=5
*ped	*	*	*
4BB	2b	.	.
4d 4B 4F#	.	.	.
4d 4B 4F#	[>4ff#^<	.	.
*Xped	*	*	*
.	.	.	.
=6	=6	=6	=6
*ped	*	*	*
4BB	(>8ff#L]	.	<
.	8gg	.	.
4d 4B 4F#	8ee#X	.	.
.	8ff#	.	.
4d 4B 4F#	8bb	.	.
*Xped	*	*	*
.	8dddJ)	.	[
!!LO:LB:g=original
=7	=7	=7	=7
*ped	*	*	*
4BB	4ddd	.	.
4d 4B 4G#X	(>4ee#X	.	.
*Xped	*	*	*
4d 4B 4G#	[>4ddd^<)	.	.
=8	=8	=8	=8
*ped	*	*	*
4BB	4ddd]	.	.
4e 4B 4Gn	(>4een	.	.
*Xped	*	*	*
4e 4B 4G	[>4ccc#^<)	.	.
=9	=9	=9	=9
*ped	*	*	*
4BB	(>8ccc#L]	.	>
.	8bb	.	.
4e 4c# 4F#	8aa#X	.	.
.	8gg	.	.
4e 4A#X 4F#	8ff#	.	.
*Xped	*	*	*
.	8cc#J)	.	]
=10	=10	=10	=10
*ped	*	*	*
4BB	(>8ddL	.	.
.	8gg	.	.
4d 4B 4F#	8ff#	.	.
.	8cc#	.	.
4d 4B 4F#	8dd	.	.
*Xped	*	*	*
.	8bJ)	.	.
=11	=11	=11	=11
*ped	*	*	*
4C#	2a#X\	.	.
4e 4c# 4F#	.	.	.
4e 4c# 4F#	[>4ff#^<	.	.
*Xped	*	*	*
.	.	.	.
=12	=12	=12	=12
*ped	*	*	*
4FF#	(>8ff#L]	.	.
.	8gg	.	.
4e 4A#X 4F#	8ff#	.	.
.	8cc#	.	.
4e 4c# 4F#	8ee	.	.
*Xped	*	*	*
.	8ddJ)	.	.
=13	=13	=13	=13
*ped	*	*	*
4BB	2b	.	.
4d 4B 4F#	.	.	.
4d 4B 4F#	[>4ff#^<	.	.
*Xped	*	*	*
.	.	.	.
!!LO:LB:g=original
=14	=14	=14	=14
*ped	*	*	*
4D	(>8ff#L]	.	<
.	8fff#	.	.
4d 4B 4F#	8ccc#	.	.
.	8ddd	.	.
4d 4B 4F#	8aa#X	.	.
*Xped	*	*	*
.	8bbJ)	5	.
=15	=15	=15	=15
*ped	*	*	*
4E	(>8aanL	4	.
.	8gg	.	.
4g 4c# 4B	8b	.	.
!	!LO:TX:i:t=rit.	!	!
.	8cc#	.	.
4r	8dd	.	.
*Xped	*	*	*
.	8eeJ)	.	.
=16	=16	=16	=16
*^	*	*	*
2F#	4F#	(>8ggL	.	>
.	.	8ff#	.	.
.	4d 4B	8b	.	.
.	.	8dd	.	.
4rbyy	4e 4A#X	8cc#	.	.
.	.	8f#J)	.	.
*v	*v	*	*	*
=17	=17	=17	=17
*ped	*	*	*
4d 4B	(>8bL<	.	.
.	8e#X	.	<
4BB	8f#	.	.
.	8a#X	.	.
4r	8b	.	.
*Xped	*	*	*
.	8cc#J)	.	[
=18	=18	=18	=18
*ped	*	*	*
!	!LO:TX:t=tempo.	!	!
4BB	(>8ddL	.	.
.	8gg	.	.
4d 4B 4F#	8ff#	.	.
.	8cc#	.	.
4d 4B 4F#	8dd	.	.
*Xped	*	*	*
.	8bJ)	.	.
=19	=19	=19	=19
*ped	*	*	*
4C#	2a#X\	.	.
4e 4c# 4F#	.	.	.
4e 4c# 4F#	[>4ff#^<	.	.
*Xped	*	*	*
.	.	.	.
!!LO:LB:g=original
=20	=20	=20	=20
*ped	*	*	*
4AA#X	8ff#L]	.	.
.	(>8gg	.	.
4e 4c# 4F#	8ff#	.	.
.	8cc#	.	.
4e 4A#X 4F#	8ee	.	.
*Xped	*	*	*
.	8ddJ)	.	.
=21	=21	=21	=21
*ped	*	*	*
4BB	2b	.	.
4d 4B 4F#	.	.	.
4d 4B 4F#	[>4ff#^<	.	.
*Xped	*	*	*
.	.	.	.
=22	=22	=22	=22
*ped	*	*	*
4BB	8ff#L]	.	<
.	(>8gg	.	.
4d 4B 4F#	8ee#X	.	.
.	8ff#	.	.
4d 4B 4F#	8bb	.	.
*Xped	*	*	*
.	8dddJ)	.	[
=23	=23	=23	=23
*ped	*	*	*
4BB	4ddd	.	f
4d 4B 4G#X	4ee#X	.	.
4d 4B 4G#	[>4ddd^<	.	.
*Xped	*	*	*
.	.	.	.
=24	=24	=24	=24
*ped	*	*	*
4BB	4ddd]	.	.
4e 4B 4Gn	4een	.	.
4e 4B 4G	[>4ccc#^<	.	.
*Xped	*	*	*
.	.	.	.
=25	=25	=25	=25
*ped	*	*	*
4BB	8ccc#L]	.	>
.	(>8bb	.	.
4e 4c# 4F#	8aa#X	.	.
.	8gg	.	.
4e 4A#X 4F#	8ff#	.	.
*Xped	*	*	*
.	8cc#J)	.	.
=26	=26	=26	=26
*ped	*	*	*
4BB	(>8ddL	.	.
.	8gg	.	.
4d 4B 4F#	8ff#	.	.
.	8cc#	.	.
4d 4B 4F#	8dd	.	.
*Xped	*	*	*
.	8bJ)	.	.
!!LO:LB:g=original
=27	=27	=27	=27
*ped	*	*	*
4C#	2a#X\	.	.
4e 4c# 4F#	.	.	.
4e 4c# 4F#	[>4ff#^<	.	.
*Xped	*	*	*
.	.	.	.
=28	=28	=28	=28
*ped	*	*	*
4FF#	(>8ff#L]	.	.
.	8gg	.	.
4e 4A#X 4F#	8ff#	.	.
.	8cc#	.	.
4e 4c# 4F#	8ee	.	.
*Xped	*	*	*
.	8ddJ)	.	.
=29	=29	=29	=29
*ped	*	*	*
4BB	2b	.	.
4d 4B 4F#	.	.	.
4d 4B 4F#	4ff#^<	.	.
*Xped	*	*	*
.	.	.	<
=30	=30	=30	=30
*ped	*	*	*
4D	(>8fff#L	.	.
.	8ccc#	.	.
4d 4B 4F#	8ddd	.	.
.	8aa#X	.	.
4d 4B 4F#	8bb	.	.
*Xped	*	*	*
.	8ff#J)	.	.
=31	=31	=31	=31
!	!LO:TX:i:t=rit.	!	!
4E	(>8aanL	.	.
.	8gg	.	.
4c# 4G	8b	.	.
.	8cc#	.	.
4r	8ee	.	.
.	8ggJ)	.	.
=32	=32	=32	=32
*^	*	*	*
2F#	4F#	(>8ggL	.	>
.	.	8ff#	.	.
.	4d 4B	8b	.	.
.	.	8dd	.	.
4rgyy	4e 4A#X	8cc#	.	.
.	.	8f#J)	.	.
*v	*v	*	*	*
!!LO:LB:g=original
=33	=33	=33	=33
4BB	4.b/	.	.
4d 4F#	.	.	.
.	8f#L	.	.
4D	8b	.	.
.	8b-XJ	.	.
=34	=34	=34	=34
!	!LO:TX:a:i:t=Con anima.	!	!
*ped	*	*	*
4C#/	4.b-X^<	.	.
4e 4A 4G	.	.	.
.	(>8aL	.	<
4e 4A 4G	8cc#	.	.
*Xped	*	*	*
.	8eeJ)	.	[
=35	=35	=35	=35
*ped	*	*	*
4D	(>4.gg	.	>
4d 4A 4F#	.	.	.
.	8ff#L	.	.
4d 4A 4F#	8cc#	.	.
*Xped	*	*	*
.	8ddJ)	.	]
=36	=36	=36	=36
*ped	*	*	*
4AA	(>4.ff#	.	.
4g 4c# 4A	.	.	.
.	8eeL	.	.
4g 4c# 4A	8b	.	.
*Xped	*	*	*
.	8cc#J)	.	.
=37	=37	=37	=37
*ped	*	*	*
4D	(>4.ee	.	.
4f# 4d 4A	.	.	.
.	8ddL	.	.
4f# 4d 4A	8cc#	.	.
*Xped	*	*	*
.	8bJ)	.	.
=38	=38	=38	=38
*ped	*	*	*
4C#	(>4.b	.	.
4g 4e 4A	.	.	.
.	8aL	.	.
4g 4e 4A	8cc#	.	.
*Xped	*	*	*
.	8eeJ)	.	.
=39	=39	=39	=39
*ped	*	*	*
4D	(>4.gg	.	.
4f# 4d 4A	.	.	.
.	8ff#L	.	.
4f# 4d 4A	8cc#	.	.
*Xped	*	*	*
.	8ddJ)	.	.
!!LO:PB:g=original
=40	=40	=40	=40
*ped	*	*	*
4GG	(>4.ff#	.	.
4e 4B 4G	.	.	.
.	8eeL	.	.
4e 4B 4G	8b	.	.
*Xped	*	*	*
.	8cc#J)	.	.
=41	=41	=41	=41
4F# 4FF#	4.a#X	.	.
4e 4c# 4F#	.	.	.
.	8cc#/L	.	.
4e 4B 4F#	8g	.	.
.	8cc#J	.	.
=42	=42	=42	=42
*ped	*	*	*
4F# 4FF#	(>4.f#	.	.
4e 4c# 4F#	.	.	.
.	8a#XL	.	<
4e 4A#X 4F#	8cc#	.	.
*Xped	*	*	*
.	8eeJ)	.	.
.	.	.	[
=43	=43	=43	=43
*ped	*	*	*
4BB	(>4.gg	.	.
4d 4B 4F#	.	.	.
.	8ff#L	.	>
4d 4B 4F#	8cc#	.	.
*Xped	*	*	*
.	8ddJ)	.	]
=44	=44	=44	=44
*ped	*	*	*
4AA	(>4.ff#	.	>
4g 4c# 4A	.	.	.
.	8eeL	.	.
4g 4e 4A	8b	.	.
*Xped	*	*	*
.	8cc#J)	.	]
=45	=45	=45	=45
*ped	*	*	*
4D	(>4.ee	.	>
4f# 4d 4A	.	.	.
.	8ddL	.	.
4f# 4d 4A	8cc#	.	.
*Xped	*	*	*
.	8bJ)	.	]
=46	=46	=46	=46
*ped	*	*	*
4C#	(>4.b	.	.
4g 4e 4A	.	.	.
.	8aL	.	.
4g 4e 4A	8cc#	.	.
*Xped	*	*	*
.	8eeJ)	.	.
!!LO:LB:g=original
=47	=47	=47	=47
*ped	*	*	*
4D	(>4.gg	.	>
4f# 4d 4A	.	.	.
.	8ff#L	.	.
4f# 4d 4A	8cc#	.	.
*Xped	*	*	*
.	8ddJ)	.	]
=48	=48	=48	=48
*ped	*	*	*
4GG	4.ff#	.	.
4e 4G	.	.	.
*Xped	*	*	*
.	8eeL	.	.
4r	(>8fff#	.	f
.	8eeeJ	.	.
=49	=49	=49	=49
*ped	*	*	*
4FF#	8dddL	.	.
.	8ccc#X	.	.
4e 4F#	8cccn	.	.
*Xped	*	*	*
.	8bb	.	.
(<4AA#X	8aa#X	.	.
.	8aanJ	.	.
=50	=50	=50	=50
*ped	*	*	*
4BB)	8gg#XL	.	.
.	8ggn	.	.
4d 4F#	8ff#	.	.
.	8cc#	.	.
4d 4F#	8dd	.	.
*Xped	*	*	*
.	8bJ	.	.
*ped	*	*	*
=51	=51	=51	=51
4C#	4a#X\)	.	.
4e 4c# 4F#	4r	.	.
!	!	!	!LO:DY:rj
4e 4c# 4F#	(>4aan	.	sf
*Xped	*	*	*
.	.	.	.
=52	=52	=52	=52
*ped	*	*	*
4AA#X	8gg#XL	.	.
.	8ggn	.	.
4e 4c# 4F#	8ff#	.	.
.	8cc#	.	.
4e 4c# 4F#	8ee	.	.
*Xped	*	*	*
.	8ddJ)	.	.
!!LO:LB:g=original
=53	=53	=53	=53
*ped	*	*	*
4BB	4b	.	.
4d 4B 4F#	4r	.	.
!	!	!	!LO:DY:rj
4d 4B 4F#	(>4aa	.	sf
*Xped	*	*	*
.	.	.	.
=54	=54	=54	=54
*ped	*	*	*
4BB	8gg#XL	.	.
.	8ggn	.	.
.	.	.	<
4d 4B 4F#	8ee#X	.	.
.	8ff#	.	.
4d 4B 4F#	8bb	.	.
*Xped	*	*	*
.	8dddJ	.	[
=55	=55	=55	=55
*ped	*	*	*
4BB	4ddd	.	.
4d 4B 4G#X	4ee#X)	.	.
4d 4B 4G#	[>4ddd^<	.	.
*Xped	*	*	*
.	.	.	.
=56	=56	=56	=56
*ped	*	*	*
4BB	4ddd]	.	.
4e 4B 4Gn	4een	.	.
4e 4B 4G	4ccc#^<	.	.
*Xped	*	*	*
.	.	.	.
=57	=57	=57	=57
*ped	*	*	*
4BB	(>8cccnL	.	>
.	8bb	.	.
4e 4A#X 4F#	8aa#X	.	.
.	8aan	.	.
4e 4A# 4F#	8gg#X	.	.
*Xped	*	*	*
.	8ggnJ	.	.
=58	=58	=58	=58
*ped	*	*	*
!	!	!	!LO:DY:rj
!	!LO:TX:i:t=e rit.	!	!
4BB	8ff#L	.	p
.	8ffn	.	.
4d 4B 4F#	8ee	.	.
.	8dd	.	.
4d 4B 4F#	8cc#	.	.
*Xped	*	*	*
.	8bJ)	.	.
=59	=59	=59	=59
*ped	*	*	*
4C#	2a#X\	.	.
4e 4c# 4F#	.	.	.
4e 4c# 4F#	4gg^<	.	.
*Xped	*	*	*
.	.	.	.
!!LO:LB:g=original
=60	=60	=60	=60
*ped	*	*	*
!	!LO:TX:t=a tempo	!	!
4AA#X	(>8ff#L	.	.
.	8gg	.	.
4e 4A#X 4F#	8ff#	.	.
.	8cc#	.	.
4e 4c# 4F#	8ee	.	.
*Xped	*	*	*
.	8ddJ)	.	.
=61	=61	=61	=61
*ped	*	*	*
4BB	2b	.	.
4d 4B 4F#	.	.	.
4d 4B 4F#	(>4ff#^<	.	.
*Xped	*	*	*
.	.	.	.
=62	=62	=62	=62
*ped	*	*	*
4D	(>8fff#L)	.	f
.	8ccc#	.	.
4d 4B 4F#	8ddd	.	.
.	8aa#X	.	.
4d 4B 4F#	8bb	.	.
*Xped	*	*	*
.	8ff#J)	.	.
=63	=63	=63	=63
*ped	*	*	*
4E	(>8aanL	.	.
.	8gg	.	.
!	!LO:TX:i:t=rit.	!	!
4c# 4G	8b	.	.
.	8cc#	.	.
4r	8ee	.	.
*Xped	*	*	*
.	8ggJ)	.	.
=64	=64	=64	=64
*^	*	*	*
2F#	4F#	(>8ggL	.	>
.	.	8ff#	.	.
.	4d 4B	8b	.	.
.	.	8dd	.	.
4ryy	4e 4A#X	8cc#	.	.
.	.	8f#J)	.	.
*v	*v	*	*	*
=65	=65	=65	=65
4BB	4.b/	.	.
4d 4F#	.	.	.
!	!LO:TX:t=tempo.	!	!
.	8f#L	.	.
4D	8b	.	.
.	8b-XJ	.	.
=66	=66	=66	=66
*ped	*	*	*
4C#	(>4.b-X^<	.	.
4e 4A 4G	.	.	.
.	8aL	.	<
4e 4A 4G	8cc#	.	.
*Xped	*	*	*
.	8eeJ)	.	[
!!LO:LB:g=original
=67	=67	=67	=67
*ped	*	*	*
4D	(>4.gg	.	>
4d 4A 4F#	.	.	.
.	8ff#L	.	.
4d 4A 4F#	8cc#	.	.
*Xped	*	*	*
.	8ddJ)	.	]
=68	=68	=68	=68
*ped	*	*	*
4AA	(>4.ff#	.	.
4g 4c# 4A	.	.	.
.	8eeL	.	.
4g 4c# 4A	8b	.	.
*Xped	*	*	*
.	8cc#J)	.	.
=69	=69	=69	=69
*ped	*	*	*
4D	(>4.ee	.	.
4f# 4d 4A	.	.	.
.	8ddL	.	.
4f# 4d 4A	8cc#	.	.
*Xped	*	*	*
.	8bJ)	.	.
=70	=70	=70	=70
*ped	*	*	*
4C#	(>4.b	.	.
4g 4e 4A	.	.	.
.	8aL	.	.
4g 4e 4A	8cc#	.	.
*Xped	*	*	*
.	8eeJ)	.	.
=71	=71	=71	=71
*ped	*	*	*
4D	(>4.gg	.	.
4f# 4d 4A	.	.	.
.	8ff#L	.	.
4f# 4d 4A	8cc#	.	.
*Xped	*	*	*
.	8ddJ)	.	.
=72	=72	=72	=72
*ped	*	*	*
4GG	(>4.ff#	.	.
4e 4B 4G	.	.	.
.	8eeL	.	.
4e 4B 4G	8b	.	.
*Xped	*	*	*
.	8cc#J)	.	.
=73	=73	=73	=73
4F# 4FF#	4.a#X\	.	.
4e 4c# 4F#	.	.	.
.	8cc#L	.	.
4e 4B 4F#	8g	.	.
.	8cc#J	.	.
!!LO:LB:g=original
=74	=74	=74	=74
*ped	*	*	*
4F# 4FF#	(>4.f#	.	.
4e 4c# 4F#	.	.	.
.	8a#XL	.	<
4e 4A#X 4F#	8cc#	.	.
*Xped	*	*	*
.	8eeJ)	.	.
.	.	.	[
=75	=75	=75	=75
*ped	*	*	*
4BB	(>4.gg	.	.
4d 4B 4F#	.	.	.
.	8ff#L	.	>
4d 4B 4F#	8cc#	.	.
*Xped	*	*	*
.	8ddJ)	.	]
=76	=76	=76	=76
*ped	*	*	*
4AA	(>4.ff#	.	>
4g 4c# 4A	.	.	.
.	8eeL	.	.
4g 4e 4A	8b	.	]
*Xped	*	*	*
.	8cc#J)	.	.
=77	=77	=77	=77
*ped	*	*	*
4D	(>4.ee	.	>
4f# 4d 4A	.	.	.
.	8ddL	.	.
4f# 4d 4A	8cc#	.	]
*Xped	*	*	*
.	8bJ)	.	.
=78	=78	=78	=78
*ped	*	*	*
4C#\	(>4.b	.	.
4g 4e 4A	.	.	.
.	8aL	.	.
4g 4e 4A	8cc#	.	.
*Xped	*	*	*
.	8eeJ)	.	.
=79	=79	=79	=79
*ped	*	*	*
4D	(>4.gg	.	>
4f# 4d 4A	.	.	.
.	8ff#L	.	.
4f# 4d 4A	8cc#	.	.
*Xped	*	*	*
.	8ddJ)	.	]
=80	=80	=80	=80
*ped	*	*	*
4GG	4.ff#	.	.
4e 4G	.	.	.
*Xped	*	*	*
.	8eeL	.	.
4r	(>8fff#	.	f
.	8eeeJ	.	.
!!LO:PB:g=original
=81	=81	=81	=81
*ped	*	*	*
4FF#	8dddL	.	.
.	8ccc#X	.	.
4e 4F#	8cccn	.	.
*Xped	*	*	*
.	8bb	.	.
4AA#X	8aa#X	.	.
.	8aanJ	.	.
=82	=82	=82	=82
*ped	*	*	*
4BB	8gg#XL	.	.
.	8ggn	.	.
4d 4F#	8ff#	.	.
.	8cc#	.	.
4d 4F#	8dd	.	.
*Xped	*	*	*
.	8bJ	.	.
=83	=83	=83	=83
*ped	*	*	*
4C#	4a#X\)	.	.
4e 4c# 4F#	4r	.	.
!	!	!	!LO:DY:rj
4e 4c# 4F#	(>4aan	.	sf
*Xped	*	*	*
.	.	.	.
=84	=84	=84	=84
*ped	*	*	*
4AA#X	8gg#XL	.	.
.	8ggn	.	.
4e 4c# 4F#	8ff#	.	.
.	8cc#	.	.
4e 4c# 4F#	8ee	.	.
*Xped	*	*	*
.	8ddJ	.	.
=85	=85	=85	=85
*ped	*	*	*
4BB	4b)	.	.
4d 4B 4F#	4r	.	.
!	!	!	!LO:DY:rj
4d 4B 4F#	(>4aa	.	sf
*Xped	*	*	*
.	.	.	.
=86	=86	=86	=86
*ped	*	*	*
4BB	8gg#XL	.	<
.	8ggn	.	.
4d 4B 4F#	8ee#X	.	.
.	8ff#	.	.
4d 4B 4F#	8bb	.	.
*Xped	*	*	*
.	8dddJ	.	[
!!LO:LB:g=original
=87	=87	=87	=87
*ped	*	*	*
4BB	4ddd	.	.
4d 4B 4G#X	4ee#X)	.	.
4d 4B 4G#	[>4ddd^<	.	.
*Xped	*	*	*
.	.	.	.
=88	=88	=88	=88
*ped	*	*	*
4BB	4ddd]	.	.
4e 4B 4Gn	4ee	.	.
4e 4B 4G	4ccc#^<	.	.
*Xped	*	*	*
.	.	.	.
=89	=89	=89	=89
*ped	*	*	*
4BB	(>8cccnL	.	>
.	8bb	.	.
4e 4A#X 4F#	8aa#X	.	.
.	8aan	.	.
4e 4A# 4F#	8gg#X	.	.
*Xped	*	*	*
.	8ggnJ	.	.
=90	=90	=90	=90
*ped	*	*	*
!	!	!	!LO:DY:rj
!	!LO:TX:i:t=e rit.	!	!
4BB	8ff#L	.	p
.	8ffn	.	.
4d 4B 4F#	8ee	.	.
.	8dd	.	.
4d 4B 4F#	8cc#	.	.
*Xped	*	*	*
.	8bJ)	.	.
=91	=91	=91	=91
*ped	*	*	*
4C#	2a#X\	.	.
4e 4c# 4F#	.	.	.
!	!LO:TX:t=a tempo.	!	!
4e 4c# 4F#	(>4gg^<	.	.
*Xped	*	*	*
.	.	.	.
=92	=92	=92	=92
*ped	*	*	*
4AA#X	8ff#L	.	.
.	8gg	.	.
4e 4A#X 4F#	8ff#	.	.
.	8cc#	.	.
4e 4c# 4F#	8ee	.	.
*Xped	*	*	*
.	8ddJ)	.	.
!!LO:LB:g=original
=93	=93	=93	=93
*ped	*	*	*
4BB	2b	.	.
4d 4B 4F#	.	.	.
4d 4B 4F#	(>4ff#^<	.	.
*Xped	*	*	*
.	.	.	.
=94	=94	=94	=94
*ped	*	*	*
4D	(>8fff#L)	.	.
.	8ccc#	.	.
4d 4B 4F#	8ddd	.	.
.	8aa#X	.	.
4d 4B 4F#	8bb	.	.
*Xped	*	*	*
.	8ff#J)	.	.
=95	=95	=95	=95
*ped	*	*	*
4E	(>8aanL	.	.
.	8gg	.	.
4c# 4G	8b	.	.
.	8cc#	.	.
4r	8ee	.	.
*Xped	*	*	*
.	8ggJ)	.	.
=96	=96	=96	=96
*^	*	*	*
2F#	4F#	(>8ggL	.	.
.	.	8ff#	.	.
!	!	!LO:TX:i:t=rit.	!	!
.	4d 4B	8b	.	.
.	.	8dd	.	.
4ryy	4e 4A#X	8cc#	.	.
.	.	8f#J	.	.
*v	*v	*	*	*
=97	=97	=97	=97
4d 4B	4b)	.	.
4BB	4r	.	.
4r	4f#	.	.
=98||	=98||	=98||	=98||
*k[f#c#g#d#a#]	*k[f#c#g#d#a#]	*	*
*ped	*	*	*
!	!LO:TX:i:t=dolce.	!	!
4BB	(>8dd#L	.	.
.	8ee	.	.
4d# 4B 4F#	8dd#	.	.
.	8cc#	.	.
4d# 4B 4F#	8dd#	.	.
*Xped	*	*	*
.	8eeJ)	.	.
!!LO:LB:g=original
=99	=99	=99	=99
*ped	*	*	*
4AA#	2gg#^<	.	.
4e 4c# 4F#	.	.	.
4e 4c# 4F#	4ff#	.	.
*Xped	*	*	*
.	.	.	.
=100	=100	=100	=100
*ped	*	*	*
4BB	(>8dd#L	.	.
.	8ee	.	.
4d# 4B 4F#	8dd#	.	.
.	8cc#	.	.
4d# 4B 4F#	8dd#	.	.
*Xped	*	*	*
.	8eeJ)	.	.
=101	=101	=101	=101
*ped	*	*	*
4AA#	2gg#^<	.	.
4e 4c# 4F#	.	.	.
4e 4c# 4F#	4ff#	.	.
*Xped	*	*	*
.	.	.	.
=102	=102	=102	=102
*ped	*	*	*
4BB	(>4ff#	.	.
4d# 4B 4F#	8.ddd#L)	.	.
.	16ddd#Jk	.	.
4d# 4B 4F#	4ddd#	.	.
*Xped	*	*	*
.	.	.	.
=103	=103	=103	=103
*ped	*	*	*
4FF#	(>4ccc#	.	.
4e 4A#X 4F#	8.eeL)	.	.
.	16eeJk	.	.
4e 4A# 4F#	4ee	.	.
*Xped	*	*	*
.	.	.	.
=104	=104	=104	=104
*ped	*	*	*
4BB	(>4dd#	.	.
4d# 4B 4F#	8.bbL)	.	.
.	16bbJk	.	.
4d# 4B 4F#	4bb	.	.
*Xped	*	*	*
.	.	.	.
!!LO:LB:g=original
=105	=105	=105	=105
*ped	*	*	*
4FF#	(>4aa#	.	.
4e 4A# 4F#	8.cc#L)	.	.
.	16cc#Jk	.	.
4e 4A# 4F#	4ee	.	.
*Xped	*	*	*
.	.	.	.
=106	=106	=106	=106
*ped	*	*	*
4BB	(>8dd#L	.	.
.	8ee	.	.
4d# 4B 4F#	8dd#	.	.
.	8cc#	.	.
4d# 4B 4F#	8dd#	.	.
*Xped	*	*	*
.	8eeJ)	.	.
=107	=107	=107	=107
*ped	*	*	*
4AA#	(>2gg#	.	>
4e 4c# 4F#	.	.	.
4e 4c# 4F#	4ff#)	.	]
*Xped	*	*	*
.	.	.	.
=108	=108	=108	=108
*ped	*	*	*
4BB	(>8dd#L	.	.
.	8ee	.	.
4d# 4B 4F#	8dd#	.	.
.	8cc#	.	.
4d# 4B 4F#	8dd#	.	.
*Xped	*	*	*
.	8eeJ)	.	.
=109	=109	=109	=109
*ped	*	*	*
4AA#	(>2gg#	.	>
4e 4c# 4F#	.	.	.
4e 4c# 4F#	4ff#)	.	]
*Xped	*	*	*
.	.	.	.
=110	=110	=110	=110
4BB	(>4dd#	.	.
4d# 4B 4F#	8.bbL)	.	.
.	16bbJk	.	.
4d# 4B 4G#	4bb^<	.	.
!!LO:PB:g=original
=111	=111	=111	=111
4C#	(>4aa#	.	.
4f# 4c# 4A#	8.cc#L)	.	.
.	16cc#Jk	.	.
4f# 4c# 4A#	4cc#^<	.	.
=112	=112	=112	=112
*ped	*	*	*
4C#	4b	.	.
4e#X 4c# 4G#	8.gg#L	.	.
.	16gg#Jk	.	.
4e# 4c# 4G#	4gg#^<	.	.
*Xped	*	*	*
.	.	.	.
=113	=113	=113	=113
*ped	*	*	*
4FF#	4ff#	.	.
4en 4c# 4F#	8.a#L	.	.
.	16a#Jk	.	.
4e 4c# 4F#	4ee^<	.	.
*Xped	*	*	*
.	.	.	.
=114	=114	=114	=114
*ped	*	*	*
4BB	(>8dd#L 8b	.	.
.	8ee 8cc#	.	.
4d# 4B 4F#	8dd# 8b	.	.
.	8cc# 8f#	.	.
4d# 4B 4F#	8dd# 8b	.	.
*Xped	*	*	*
.	8eeJ) 8cc#	.	.
=115	=115	=115	=115
*ped	*	*	*
4FF#	(>2gg# 2a#	.	>
4e 4c# 4F#	.	.	.
4e 4c# 4F#	4ff# 4a#)	.	]
*Xped	*	*	*
.	.	.	.
=116	=116	=116	=116
*ped	*	*	*
4BB	(>8dd#L 8b	.	.
.	8ee 8cc#	.	.
4d# 4B 4F#	8dd# 8b	.	.
.	8cc# 8f#	.	.
4d# 4B 4F#	8dd# 8b	.	.
*Xped	*	*	*
.	8eeJ) 8cc#	.	.
!!LO:LB:g=original
=117	=117	=117	=117
*ped	*	*	*
4FF#	2gg# 2a#	.	>
4e 4c# 4F#	.	.	.
4e 4c# 4F#	4ff# 4a#	.	]
*Xped	*	*	*
.	.	.	.
=118	=118	=118	=118
*ped	*	*	*
4BB	4ff# 4dd#	.	.
4d# 4B 4F#	8.ddd#L 8.ff#	.	.
.	16ddd#Jk 16ff#	.	.
4d# 4B 4F#	4ddd# 4ff#	.	.
*Xped	*	*	*
.	.	.	.
=119	=119	=119	=119
*ped	*	*	*
4FF#	(>4ccc# 4ee	.	.
4e 4c# 4F#	8.eeL 8.cc#)	.	.
.	16eeJk 16cc#	.	.
4e 4c# 4F#	4ee 4cc#	.	.
*Xped	*	*	*
.	.	.	.
=120	=120	=120	=120
*ped	*	*	*
4BB	(>4dd# 4b	.	.
4d# 4B 4F#	8.bbL 8.dd#)	.	.
.	16bbJk 16dd#	.	.
4d# 4B 4F#	4bb 4dd#	.	.
*Xped	*	*	*
.	.	.	.
=121	=121	=121	=121
*ped	*	*	*
4FF#	(>4aa# 4cc#	.	.
4e 4c# 4F#	8.cc#L 8.a#)	.	.
.	16cc#Jk 16a#	.	.
4e 4c# 4F#	4ee 4cc#	.	.
*Xped	*	*	*
.	.	.	.
=122	=122	=122	=122
*ped	*	*	*
!	!LO:TX:i:t=cresc _:problem:dynamics with extention lines	!	!LO:HP:i:t=cresc:ext=ud
4BB	(>8ddnL 8b	.	<
.	8ee 8cc#	.	.
4dn 4B 4F#	8dd 8b	.	.
.	8cc# 8f#	.	.
4d 4B 4F#	8dd 8b	.	.
*Xped	*	*	*
.	8eeJ) 8cc#	.	.
!!LO:LB:g=original
=123	=123	=123	=123
*ped	*	*	*
4FF#	(>2ggn^< 2a#	.	.
4e 4c# 4F#	.	.	.
4e 4c# 4F#	4ff#) 4a#	.	.
*Xped	*	*	*
.	.	.	.
=124	=124	=124	=124
*ped	*	*	*
4BB	(>8ddnL 8b	.	.
.	8ee 8cc#	.	.
4dn 4B 4F#	8dd 8b	.	.
.	8cc# 8f#	.	.
4d 4B 4F#	8dd 8b	.	.
*Xped	*	*	*
.	8eeJ) 8cc#	.	.
=125	=125	=125	=125
*ped	*	*	*
4FF#	(>2ggn^< 2a#	.	.
4e 4F#	.	.	.
4e 4F#	4ff#) 4a#	.	[[
*Xped	*	*	*
.	.	.	.
=126	=126	=126	=126
*ped	*	*	*
4BB	(>4ff# 4ddn	.	>
4dn 4F#	8eeL) 8f#	.	.
.	16r	.	.
.	(>16eeJk 16f#	.	.
4BB	4dd) 4b	.	.
*Xped	*	*	*
.	.	.	.
=127	=127	=127	=127
*ped	*	*	*
4GGn	(>4ddn 4b	.	.
4B 4E#X 4C#	8cc#L) 8e#X	.	.
.	16r	.	.
.	(>16cc#Jk [<16e#	.	.
4B 4E# 4C#	4b) 4e#]	.	.
*Xped	*	*	*
.	.	.	.
=128	=128	=128	=128
*	*^	*	*
*ped	*	*	*	*
4FF#	4a#	[<2.f#	.	.
!	!	!	!	!LO:DY:a:rj
4A# 4F# 4C#	[>2cc#	.	.	sf
4A# 4F# 4C#	.	.	.	.
*Xped	*	*	*	*
.	.	.	.	.
*	*v	*v	*	*
!!LO:LB:g=original
=129	=129	=129	=129
*ped	*	*	*
4FF#	4cc#] 4f#]	.	.
4e 4A# 4F#	4f#	.	.
*Xped	*	*	*
4e 4A# 4F#	[>4ff#^<	.	.
=130||	=130||	=130||	=130||
*k[f#c#]	*k[f#c#]	*	*
*ped	*	*	*
!	!	!	!LO:DY:rj
4BBB	(>8ff#L]	.	f
.	8gg	.	.
4d 4B 4F#	8ff#	.	.
.	8cc#	.	.
4d 4B 4F#	8dd	.	.
*Xped	*	*	*
.	8bJ)	.	.
=131	=131	=131	=131
*ped	*	*	*
4C#\	2a#X\	.	.
4e 4c# 4F#	.	.	.
4e 4c# 4F#	[>4ff#^<	.	.
*Xped	*	*	*
.	.	.	.
=132	=132	=132	=132
*ped	*	*	*
4AA#X	(>8ff#L]	.	.
.	8gg	.	.
4e 4A#X 4F#	8ff#	.	.
.	8cc#	.	.
4e 4A# 4F#	8ee	.	.
*Xped	*	*	*
.	8ddJ)	.	.
=133	=133	=133	=133
*ped	*	*	*
4BB	2b\	.	.
4d 4B 4F#	.	.	.
4d 4B 4F#	[>4ff#^<	.	.
*Xped	*	*	*
.	.	.	.
=134	=134	=134	=134
*ped	*	*	*
4BB	(>8ff#L]	.	<
.	8gg	.	.
4d 4B 4F#	8ee#X	.	.
.	8ff#	.	.
4d 4B 4F#	8bb	.	.
*Xped	*	*	*
.	8dddJ)	.	[
!!LO:LB:g=original
=135	=135	=135	=135
*ped	*	*	*
4BB	4ddd	.	.
4d 4B 4G#X	(>4ee#X	.	.
4d 4B 4G#	[>4ddd)	.	.
*Xped	*	*	*
.	.	.	.
=136	=136	=136	=136
*ped	*	*	*
4BB	4ddd]	.	.
4e 4B 4Gn	4een	.	.
4e 4B 4G	[>4ccc#^<	.	.
*Xped	*	*	*
.	.	.	.
=137	=137	=137	=137
*ped	*	*	*
4BB	(>8ccc#L]	.	>
.	8bb	.	.
4e 4c# 4F#	8aa#X	.	.
.	8gg	.	.
4e 4A#X 4F#	8ff#	.	.
*Xped	*	*	*
.	8cc#J)	.	]
=138	=138	=138	=138
*ped	*	*	*
4BB	(>8ddL	.	.
.	8gg	.	.
4d 4B 4F#	8ff#	.	.
.	8cc#	.	.
4d 4B 4F#	8dd	.	.
*Xped	*	*	*
.	8bJ)	.	.
=139	=139	=139	=139
*ped	*	*	*
4C#\	2a#X\	.	.
4e 4c# 4F#	.	.	.
4e 4c# 4F#	[>4ff#^<	.	.
*Xped	*	*	*
.	.	.	.
!!LO:PB:g=original
=140	=140	=140	=140
*ped	*	*	*
4FF#	(>8ff#L]	.	.
.	8gg	.	.
4e 4A#X 4F#	8ff#	.	.
.	8cc#	.	.
4e 4c# 4F#	8ee	.	.
*Xped	*	*	*
.	8ddJ)	.	.
=141	=141	=141	=141
*ped	*	*	*
4BB	2b	.	.
4d 4B 4F#	.	.	.
4d 4B 4F#	[>4ff#^<	.	.
*Xped	*	*	*
.	.	.	.
=142	=142	=142	=142
*ped	*	*	*
4D	(>8ff#L]	.	.
.	8fff#	.	f
4d 4B 4F#	8ccc#	.	.
.	8ddd	.	.
4d 4B 4F#	8aa#X	.	.
*Xped	*	*	*
.	8bbJ)	5	.
=143	=143	=143	=143
*ped	*	*	*
4E	(>8aanL	4	.
.	8gg	.	.
4g 4c# 4B	8b	.	.
.	8cc#	.	.
4r	8dd	.	.
*Xped	*	*	*
.	8eeJ)	.	.
=144	=144	=144	=144
*^	*	*	*
2F#	4F#	(>8ggL	.	>
.	.	8ff#	.	.
.	4d 4B	8b	.	.
.	.	8dd	.	.
4ryy	4e 4A#X	8cc#	.	.
.	.	8f#J)	.	.
*v	*v	*	*	*
=145	=145	=145	=145
4BB	4.b/	.	.
4d 4F#	.	.	.
.	8f#L	.	.
4D	8b	.	.
.	8b-XJ	.	.
!!LO:LB:g=original
=146	=146	=146	=146
*ped	*	*	*
4C#\	4.b-X^<	.	.
4e 4A 4G	.	.	.
.	(>8aL	.	<
4e 4A 4G	8cc#	.	.
*Xped	*	*	*
.	8eeJ)	.	[
=147	=147	=147	=147
*ped	*	*	*
4D	(>4.gg	.	>
4d 4A 4F#	.	.	.
.	8ff#L	.	.
4d 4A 4F#	8cc#	.	.
*Xped	*	*	*
.	8ddJ)	.	]
=148	=148	=148	=148
*ped	*	*	*
4AA	(>4.ff#	.	[
4g 4c# 4A	.	.	.
.	8eeL	.	.
4g 4c# 4A	8b	.	.
*Xped	*	*	*
.	.	.	.
.	8cc#J)	.	.
=149	=149	=149	=149
*ped	*	*	*
4D	(>4.ee	.	.
4f# 4d 4A	.	.	.
.	8ddL	.	.
4f# 4d 4A	8cc#	.	.
*Xped	*	*	*
.	8bJ)	.	.
=150	=150	=150	=150
*ped	*	*	*
4C#\	(>4.b	.	.
4g 4e 4A	.	.	.
.	8aL	.	.
4g 4e 4A	8cc#	.	.
*Xped	*	*	*
.	8eeJ)	.	.
=151	=151	=151	=151
*ped	*	*	*
4D	(>4.gg	.	.
4f# 4d 4A	.	.	.
.	8ff#L	.	.
4f# 4d 4A	8cc#	.	.
*Xped	*	*	*
.	8ddJ)	.	.
=152	=152	=152	=152
*ped	*	*	*
4GG	(>4.ff#	.	.
4e 4B 4G	.	.	.
.	8eeL	.	.
4e 4B 4G	8b	.	.
*Xped	*	*	*
.	8cc#J)	.	.
!!LO:LB:g=original
=153	=153	=153	=153
4F# 4FF#	4.a#X	.	.
4e 4c# 4F#	.	.	.
.	8cc#/L	.	.
4e 4B 4F#	8g	.	.
.	8cc#J	.	.
=154	=154	=154	=154
*ped	*	*	*
4F# 4FF#	(>4.f#	.	.
4e 4c# 4F#	.	.	.
.	8a#XL	.	<
4e 4A#X 4F#	8cc#	.	.
*Xped	*	*	*
.	8eeJ)	.	[
.	.	.	.
=155	=155	=155	=155
*ped	*	*	*
4BB	(>4.gg	.	.
4d 4B 4F#	.	.	.
.	8ff#L	.	>
4d 4B 4F#	8cc#	.	.
*Xped	*	*	*
.	8ddJ)	.	]
=156	=156	=156	=156
*ped	*	*	*
4AA	(>4.ff#	.	>
4g 4c# 4A	.	.	.
.	8eeL	.	.
4g 4e 4A	8b	.	.
*Xped	*	*	*
.	8cc#J)	.	]
=157	=157	=157	=157
*ped	*	*	*
4D	(>4.ee	.	>
4f# 4d 4A	.	.	.
.	8ddL	.	.
4f# 4d 4A	8cc#	.	.
*Xped	*	*	*
.	8bJ)	.	]
=158	=158	=158	=158
*ped	*	*	*
4C#\	(>4.b	.	.
4g 4e 4A	.	.	.
.	8aL	.	.
4g 4e 4A	8cc#	.	.
*Xped	*	*	*
.	8eeJ)	.	.
=159	=159	=159	=159
*ped	*	*	*
4D	(>4.gg	.	>
4f# 4d 4A	.	.	.
.	8ff#L	.	.
4f# 4d 4A	8cc#	.	.
*Xped	*	*	*
.	8ddJ)	.	]
!!LO:LB:g=original
=160	=160	=160	=160
*ped	*	*	*
4GG	4.ff#	.	.
4e 4G	.	.	.
*Xped	*	*	*
.	8eeL	.	.
4r	(>8fff#	.	f
.	8eeeJ	.	.
=161	=161	=161	=161
*ped	*	*	*
4FF#	8dddL	.	.
.	8ccc#X	.	.
4e 4F#	8cccn	.	.
*Xped	*	*	*
.	8bb	.	.
4AA#X	8aa#X	.	.
.	8aanJ	.	.
=162	=162	=162	=162
*ped	*	*	*
4BB	8gg#XL	.	.
.	8ggn	.	.
4d 4F#	8ff#	.	.
.	8cc#	.	.
4d 4F#	8dd	.	.
*Xped	*	*	*
.	8bJ	.	.
=163	=163	=163	=163
*ped	*	*	*
4C#\	4a#X\)	.	.
4e 4c# 4F#	4r	.	.
!	!	!	!LO:DY:rj
4e 4c# 4F#	(>4aan	.	sf
*Xped	*	*	*
.	.	.	.
=164	=164	=164	=164
*ped	*	*	*
4AA#X	8gg#XL	.	.
.	8ggn	.	.
4e 4c# 4F#	8ff#	.	.
.	8cc#	.	.
4e 4c# 4F#	8ee	.	.
*Xped	*	*	*
.	8ddJ)	.	.
=165	=165	=165	=165
*ped	*	*	*
4BB	4b	.	.
4d 4B 4F#	4r	.	.
!	!	!	!LO:DY:rj
4d 4B 4F#	(>4aa	.	sf
*Xped	*	*	*
.	.	.	.
!!LO:LB:g=original
=166	=166	=166	=166
*ped	*	*	*
4BB	8gg#XL	.	.
.	8ggn	.	<
4d 4B 4F#	8ee#X	.	.
.	8ff#	.	.
4d 4B 4F#	8bb	.	.
*Xped	*	*	*
.	8dddJ)	.	[
=167	=167	=167	=167
*ped	*	*	*
4BB	4ddd	.	.
4d 4B 4G#X	4ee#X	.	.
4d 4B 4G#	[>4ddd^<	.	.
*Xped	*	*	*
.	.	.	.
=168	=168	=168	=168
*ped	*	*	*
4BB	4ddd]	.	.
4e 4B 4Gn	4een	.	.
4e 4B 4G	4ccc#^<	.	.
*Xped	*	*	*
.	.	.	.
=169	=169	=169	=169
*ped	*	*	*
4BB	(>8cccnL	.	>
.	8bb	.	.
4e 4A#X 4F#	8aa#X	.	.
.	8aan	.	.
4e 4A# 4F#	8gg#X	.	.
*Xped	*	*	*
.	8ggnJ	.	.
=170	=170	=170	=170
*ped	*	*	*
!	!LO:TX:i:t=e rit.	!	!
!	!	!	!LO:DY:rj
4BB	8ff#L	.	p
.	8ffn	.	.
4d 4B 4F#	8ee	.	.
.	8dd	.	.
4d 4B 4F#	8cc#	.	.
*Xped	*	*	*
.	8bJ)	.	.
=171	=171	=171	=171
*ped	*	*	*
4C#	2a#X\	.	.
4e 4c# 4F#	.	.	.
4e 4c# 4F#	4gg^<	.	.
*Xped	*	*	*
.	.	.	.
!!LO:LB:g=original
=172	=172	=172	=172
*ped	*	*	*
4AA#X	(>8ff#L	.	.
.	8gg	.	.
4e 4A#X 4F#	8ff#	.	.
.	8cc#	.	.
4e 4c# 4F#	8ee	.	.
*Xped	*	*	*
.	8ddJ)	.	.
=173	=173	=173	=173
*ped	*	*	*
4BB	2b	.	.
4d 4B 4F#	.	.	.
4d 4B 4F#	(>4ff#^<	.	.
*Xped	*	*	*
.	.	.	.
=174	=174	=174	=174
*ped	*	*	*
4D	8fff#L	.	.
.	8ccc#	.	.
4d 4B 4F#	8ddd	.	.
.	8aa#X	.	.
4d 4B 4F#	8bb	.	.
*Xped	*	*	*
.	8ff#J)	.	.
=175	=175	=175	=175
*ped	*	*	*
4E	(>8aanL	.	.
!	!LO:TX:i:t=Calando.	!	!
.	8gg	.	.
4c# 4G	8b	.	.
.	8cc#	.	.
4r	8ee	.	.
*Xped	*	*	*
.	8ggJ)	.	.
=176	=176	=176	=176
*^	*	*	*
2F#	4F#	(>8ggL	.	.
.	.	8ff#	.	.
.	4d 4B	8b	.	.
.	.	8dd	.	.
4rgyy	4e 4A#X	8cc#	.	.
.	.	8f#J)	.	.
*v	*v	*	*	*
=177	=177	=177	=177
4d 4B	4b\	.	.
4BB/	4r	.	.
4r	4r	.	.
==	==	==	==
*-	*-	*-	*-
!!!system-decoration: s1{(s2,s3)}
!!!RDF**kern: N = linked
!!!RDF**kern: > = above
!!!RDF**kern: < = below
!!!RDF**dynam: > = "dim." fontstyle="italic"
!!!RDF**dynam: < = "cresc." fontstyle="italic"
!!title: @{OTL}; @{OPS} @{ONM} publisher: @{PPR}
!!!RDF**kern: i=editorial accidental, bracket
!!!ENC: Mateusz Mrugas
!!!END: 2020-01-02
!!!EED: Antoni Szymański
!!!EST: 2020-01-05
!!!rism-genre: Waltz
!!!rism-key: B minor
!!!rism-opus: op. 69, no. 2
!!!rism-title: Waltz in B minor op. 69, no. 2
!!!rism-permalink: https://opac.rism.info/search?id=1001030112&View=rism
!!!rism-773a-OPR: 1001030110
!!!rism-parent-permalink: https://opac.rism.info/search?id=1001030110&View=rism
